images/serfirst.svg

<svg width="54" height="78" viewBox="0 0 54 78" fill="none" xmlns="http://www.w3.org/2000/svg">
<path d="M52.8656 38.7227C52.8656 42.064 50.1565 44.7731 46.8152 44.7731C43.4739 44.7731 40.7648 42.064 40.7648 38.7227C40.7648 35.3813 43.4739 32.6722 46.8152 32.6722C50.1565 32.6722 52.8656 35.3813 52.8656 38.7227Z" fill="#89CEEA"/>
<path d="M46.8151 32.6722C46.0127 32.6722 45.247 32.83 44.5462 33.1136C46.7631 34.0117 48.3277 36.1837 48.3277 38.7227C48.3277 41.2616 46.7631 43.4336 44.5462 44.3317C45.247 44.6153 46.0127 44.7731 46.8151 44.7731C50.1564 44.7731 52.8655 42.064 52.8655 38.7227C52.8655 35.3813 50.1564 32.6722 46.8151 32.6722Z" fill="#78C0DE"/>
<path d="M37.437 60.0581V76.3109H1.13446V60.0581C1.13446 54.452 4.95379 49.7423 10.1256 48.4051C10.5747 48.2881 11.0343 48.1977 11.5017 48.1339C12.0341 48.0613 12.5759 48.0234 13.1278 48.0234H25.4437C25.9955 48.0234 26.5374 48.0613 27.0697 48.1339C27.5412 48.1977 28.0027 48.2899 28.4553 48.4081C33.6224 49.7464 37.437 54.4556 37.437 60.0581Z" fill="#E8E1D5"/>
<path d="M28.4553 48.4081C28.0027 48.2899 27.5413 48.1977 27.0697 48.1339C26.5374 48.0613 25.9956 48.0234 25.4437 48.0234H20.9059C21.4577 48.0234 21.9996 48.0613 22.5319 48.1339C23.0034 48.1977 23.4649 48.2899 23.9175 48.4081C29.0846 49.7464 32.8992 54.4556 32.8992 60.0581V76.3109H37.437V60.0581C37.437 54.4556 33.6224 49.7464 28.4553 48.4081Z" fill="#D6CFC4"/>
<path d="M28.4553 48.4081L19.2905 76.3109L10.1256 48.4051C10.5747 48.2881 11.0344 48.1977 11.5017 48.1339C12.0341 48.0613 12.5759 48.0234 13.1278 48.0234H25.4437C25.9956 48.0234 26.5374 48.0613 27.0697 48.1339C27.5412 48.1977 28.0027 48.2899 28.4553 48.4081Z" fill="#FF573D"/>
<path d="M26.1302 48.0229C26.6762 48.0229 27.0756 48.5375 26.9409 49.0669C26.2691 51.7069 23.0968 53.707 19.2857 53.707C15.4746 53.707 12.3023 51.7069 11.6305 49.0669C11.4958 48.5375 11.8952 48.0229 12.4412 48.0229H14.7898V39.1871H23.7816V48.0229H26.1302Z" fill="#EBA28C"/>
<path d="M19.2857 76.311C19.3318 75.9187 15.4203 51.1864 14.7632 47.035C14.7112 46.7088 14.407 46.4849 14.0796 46.5322L7.79758 47.4338C7.51515 47.4746 7.29948 47.7068 7.27999 47.9916L6.71985 56.2016L9.36041 57.8082L8.62419 61.6476L19.2857 76.311Z" fill="#C4BEB4"/>
<path d="M19.2863 76.311C19.2402 75.9187 23.1511 51.1864 23.8087 47.035C23.8602 46.7088 24.165 46.4849 24.4924 46.5322L30.7744 47.4338C31.0568 47.4746 31.2725 47.7068 31.292 47.9916L31.8521 56.2016L29.2116 57.8082L29.9472 61.6476L19.2863 76.311Z" fill="#C4BEB4"/>
<path d="M8.24369 24.353C8.24369 26.6083 6.60464 28.437 4.5833 28.437C2.56197 28.437 1.28571 26.3418 1.28571 24.0865C1.28571 21.4246 2.56197 20.2689 4.5833 20.2689C6.60464 20.2689 8.24369 22.0976 8.24369 24.353Z" fill="#EBA28C"/>
<path d="M30.3277 24.353C30.3277 26.6083 31.9667 28.437 33.9881 28.437C36.0094 28.437 37.2857 26.3418 37.2857 24.0865C37.2857 21.4246 36.0094 20.2689 33.9881 20.2689C31.9667 20.2689 30.3277 22.0976 30.3277 24.353Z" fill="#EBA28C"/>
<path d="M5.97479 29.6081V19.7596C5.97479 12.8282 11.5939 7.20911 18.5253 7.20911H20.0462C26.9776 7.20911 32.5966 12.8282 32.5966 19.7596V29.6081C32.5966 36.9531 26.6425 42.9066 19.2981 42.9066H19.2733C11.9289 42.9066 5.97479 36.9531 5.97479 29.6081Z" fill="#FCC19C"/>
<path d="M20.0461 7.20911H18.5253C18.0142 7.20911 17.5113 7.24338 17.0168 7.30246C23.2362 8.04813 28.0588 13.3393 28.0588 19.7596V29.6081C28.0588 36.1838 23.2864 41.6433 17.0168 42.7151C17.75 42.841 18.504 42.9066 19.2733 42.9066H19.2981C26.6425 42.9066 32.5966 36.9531 32.5966 29.6081V19.7596C32.5966 12.8282 26.9775 7.20911 20.0461 7.20911Z" fill="#EBA28C"/>
<path d="M5.97477 24.2389C5.97477 24.3352 6.06222 24.4067 6.15675 24.3872C6.7618 24.2596 8.67914 23.7367 8.84872 22.2099C9.0502 20.3948 12.489 15.2519 17.9297 14.7479C21.8914 14.3804 23.8164 12.3023 24.5704 11.1998C24.721 10.9794 25.0602 11.0432 25.1163 11.3038C25.4165 12.7035 26.2336 15.6242 28.0629 17.2691C30.4807 19.4435 29.7534 24.2271 32.4306 24.4156C32.5198 24.4215 32.5966 24.3535 32.5966 24.2643V20.4852C32.5966 20.0846 32.9216 19.7596 33.3222 19.7596H33.3884C33.7246 19.7596 34.017 19.5303 34.0944 19.203C34.423 17.8168 35.1243 14.111 34.0702 11.2181C32.7479 7.58785 29.0438 6.07524 29.0438 6.07524C29.0438 6.07524 27.787 1.13446 20.0828 1.13446C12.3779 1.13446 9.35627 4.37888 9.35627 4.37888C9.35627 4.37888 3.50438 9.39588 4.00838 13.786C4.34695 16.7367 4.47634 18.6612 4.5242 19.606C4.54429 19.9918 4.86277 20.2943 5.24919 20.2943C5.6498 20.2943 5.97477 20.6193 5.97477 21.0199V24.2389Z" fill="#633327"/>
<path d="M34.0702 11.2187C32.7479 7.58844 29.0438 6.07524 29.0438 6.07524C29.0438 6.07524 27.787 1.13446 20.0828 1.13446C19.1787 1.13446 18.3421 1.18055 17.5645 1.25913C23.4755 2.02666 24.506 6.07524 24.506 6.07524C24.506 6.07524 28.2101 7.58844 29.5324 11.2187C30.5865 14.111 29.8846 17.8168 29.556 19.2036C29.536 19.2893 29.4999 19.3684 29.4526 19.4382C30.3342 21.6758 30.4701 24.2779 32.4306 24.4156C32.5198 24.4215 32.5966 24.3535 32.5966 24.2643V20.4852C32.5966 20.0846 32.9216 19.7596 33.3222 19.7596H33.3884C33.724 19.7596 34.0165 19.5303 34.0939 19.203C34.423 17.8168 35.1243 14.111 34.0702 11.2187Z" fill="#572D22"/>
<path d="M13.3918 14.7479C9.35506 15.1219 6.42262 18.049 5.09436 20.2766C5.14399 20.2872 5.19599 20.2943 5.24917 20.2943C5.64977 20.2943 5.97474 20.6193 5.97474 21.0199V24.2389C5.97474 24.3352 6.06219 24.4067 6.15673 24.3872C6.76177 24.2596 8.67912 23.7367 8.84869 22.2105C9.05018 20.3954 12.489 15.2525 17.9296 14.7479C19.2993 14.6209 20.4254 14.2894 21.3436 13.8646C18.8573 14.2185 17.3536 14.381 13.3918 14.7479Z" fill="#572D22"/>
<path d="M17.0888 26.1987C17.0888 28.2869 15.396 29.9803 13.3073 29.9803C11.2186 29.9803 9.52582 28.2869 9.52582 26.1987C9.52582 24.1101 11.2186 22.4172 13.3073 22.4172C15.396 22.4172 17.0888 24.1101 17.0888 26.1987Z" fill="#CEE8F2"/>
<path d="M29.0456 26.1987C29.0456 28.2869 27.3528 29.9803 25.2641 29.9803C23.1754 29.9803 21.4825 28.2869 21.4825 26.1987C21.4825 24.1101 23.1754 22.4172 25.2641 22.4172C27.3528 22.4172 29.0456 24.1101 29.0456 26.1987Z" fill="#CEE8F2"/>
<path d="M54 38.7227C54 34.761 50.7769 31.5378 46.8151 31.5378C42.8534 31.5378 39.6303 34.761 39.6303 38.7227C39.6303 42.2986 42.256 45.2718 45.6807 45.8172V47.2707C45.6807 51.8351 42.3984 55.6455 38.0704 56.4704C37.1995 53.3985 35.2301 50.7012 32.4944 48.9505L32.4235 47.9141C32.368 47.1011 31.7423 46.4269 30.9357 46.3105L28.941 46.0246C32.8726 43.9684 35.5634 39.8518 35.5634 35.1161V29.24C37.2662 28.4872 38.4202 26.5196 38.4202 24.0865C38.4202 21.4418 37.2786 19.7454 35.2425 19.2709C35.6177 17.6136 36.244 13.8699 35.1362 10.8299C33.9426 7.55475 31.0935 5.82885 29.9519 5.24921C29.3487 3.79865 27.0993 0 20.0828 0C12.4317 0 9.04963 3.08193 8.57931 3.55108C8.00322 4.05331 2.33154 9.13176 2.88163 13.9154C3.17647 16.4833 3.31001 18.2629 3.36909 19.2615C1.30758 19.7224 0.151261 21.424 0.151261 24.0865C0.151261 26.5368 1.32117 28.5138 3.04235 29.2553V35.1161C3.04235 39.8489 5.73017 43.963 9.65763 46.0204L7.63629 46.3105C6.82918 46.4269 6.20345 47.1011 6.14791 47.9141L6.0776 48.9505C2.3144 51.3583 0 55.5575 0 60.0581V67.7647C0 68.391 0.508141 68.8992 1.13445 68.8992C1.76077 68.8992 2.26891 68.391 2.26891 67.7647V60.0581C2.26891 56.9401 3.61016 53.997 5.87257 51.9515L5.58778 56.1241C5.55882 56.5472 5.76799 56.9508 6.1296 57.1706L8.09776 58.3676L7.50985 61.4342C7.45076 61.7421 7.52226 62.0611 7.7066 62.3146L17.0582 75.1765H2.26891V72.5861C2.26891 71.9598 1.76077 71.4517 1.13445 71.4517C0.508141 71.4517 0 71.9598 0 72.5861V76.3109C0 76.9372 0.508141 77.4454 1.13445 77.4454H37.437C38.0633 77.4454 38.5714 76.9372 38.5714 76.3109V60.0581C38.5714 59.6008 38.5472 59.147 38.4999 58.6979C43.8744 57.6716 47.9496 52.9394 47.9496 47.2707V45.8172C51.3742 45.2718 54 42.2986 54 38.7227ZM35.7501 56.6382H32.8968C32.9636 56.4781 32.9967 56.3038 32.9842 56.1241L32.6995 51.9521C34.1069 53.2248 35.1568 54.8443 35.7501 56.6382ZM30.6734 55.5906L29.0113 56.6022C27.0319 56.4349 25.2256 55.6509 23.7875 54.442C23.8489 54.0502 24.5574 49.562 24.8475 47.7286L30.1895 48.4961L30.6734 55.5906ZM19.2739 44.041H19.2975C20.4503 44.041 21.5718 43.9045 22.6465 43.6481V45.1513H15.9249V43.6481C16.9997 43.9045 18.1211 44.041 19.2739 44.041ZM15.9728 47.4202H18.1725C18.1962 49.2719 18.6547 51.0203 19.45 52.5683C19.395 52.5695 19.3407 52.5719 19.2857 52.5719C18.4071 52.5719 17.5362 52.4484 16.7308 52.2156C16.4933 50.713 16.241 49.1171 15.9728 47.4202ZM21.8436 52.1991C20.9785 50.8058 20.4692 49.1709 20.4414 47.4202H22.5993C22.3316 49.1106 22.0799 50.7012 21.8436 52.1991ZM19.2857 54.8408C19.8293 54.8408 20.3629 54.8042 20.8852 54.7327C21.0382 54.9152 21.1972 55.0913 21.3602 55.2639C20.4225 61.2186 19.7572 65.4834 19.2863 68.5429C18.7988 65.3776 18.1034 60.9214 17.1131 54.6387C17.8162 54.7717 18.5418 54.8408 19.2857 54.8408ZM24.9154 45.0124V42.903C29.0367 41.1547 32.183 37.5445 33.2944 33.1337V35.1161C33.2944 40.0852 29.6636 44.2201 24.9154 45.0124ZM36.1513 24.0865C36.1513 25.6676 35.3424 27.3025 33.9881 27.3025C33.9019 27.3025 33.8162 27.2966 33.7311 27.2866V21.4193C33.8162 21.4093 33.9019 21.4034 33.9881 21.4034C35.0576 21.4034 36.1513 21.7224 36.1513 24.0865ZM10.0949 5.24035C10.1268 5.21317 10.1575 5.18363 10.1865 5.15231C10.213 5.12336 12.9546 2.26891 20.0828 2.26891C26.7323 2.26891 27.9005 6.19932 27.9442 6.3553C28.0263 6.71159 28.2739 6.98398 28.6113 7.12461C28.6438 7.13761 31.877 8.51254 33.0043 11.6069C33.8965 14.0554 33.3447 17.3223 33.0581 18.644C32.157 18.7728 31.4622 19.5492 31.4622 20.4852V21.9464C31.3493 21.6297 31.2329 21.2545 31.1029 20.8184C30.6563 19.3194 30.1493 17.6195 28.821 16.4254C27.2038 14.9707 26.467 12.193 26.2254 11.0657C26.1048 10.5043 25.6629 10.0695 25.0998 9.95838C24.5349 9.8473 23.9594 10.083 23.6339 10.5593C22.9467 11.5643 21.2787 13.2979 17.8251 13.6182C17.7767 13.6229 17.7282 13.6276 17.6803 13.6329C17.057 13.6997 16.6062 14.2587 16.6729 14.8814C16.7397 15.5048 17.2998 15.9544 17.9214 15.8889C17.9592 15.8847 17.9965 15.8812 18.0343 15.8776C21.1853 15.5852 23.1996 14.313 24.4209 13.1254C24.9273 14.7597 25.8118 16.7698 27.3043 18.1123C28.1575 18.8798 28.5492 20.1951 28.9286 21.4672C29.3735 22.9585 29.9124 24.7612 31.4622 25.355V29.6075C31.4622 36.3155 26.0056 41.7721 19.2975 41.7721H19.2739C12.5658 41.7721 7.10924 36.3155 7.10924 29.6075V25.306C7.72788 25.1057 8.26142 24.8304 8.69689 24.4936C8.49954 25.0253 8.39141 25.5997 8.39141 26.1988C8.39141 28.9091 10.5965 31.1148 13.3074 31.1148C15.6277 31.1148 17.5758 29.4982 18.0898 27.3332H20.4816C20.9951 29.4982 22.9437 31.1148 25.264 31.1148C27.9743 31.1148 30.18 28.9091 30.18 26.1988C30.18 23.4879 27.9743 21.2828 25.264 21.2828C22.9437 21.2828 20.9951 22.8988 20.4816 25.0643H18.0898C17.5758 22.8988 15.6277 21.2828 13.3074 21.2828C11.9986 21.2828 10.8086 21.7981 9.92647 22.6347C9.94774 22.5366 9.96488 22.4368 9.9761 22.3351C10.073 21.4648 11.5141 18.998 13.9236 17.3849C14.4442 17.0363 14.5836 16.3314 14.2356 15.8109C13.887 15.2903 13.1821 15.1509 12.6616 15.4995C9.8532 17.379 7.91045 20.3812 7.72138 22.0846C7.68711 22.3895 7.43422 22.6394 7.10924 22.8327V21.0193C7.10924 21.0175 7.10924 21.0163 7.10924 21.0152C7.10747 20.4828 6.88117 20.0036 6.52015 19.665C6.50775 19.6526 6.49475 19.6402 6.48175 19.6278C6.4717 19.619 6.46107 19.6107 6.45102 19.6024C6.43448 19.5882 6.41735 19.5741 6.39962 19.5611C6.18041 19.3873 5.92161 19.2609 5.63859 19.2006C5.5795 18.1855 5.44302 16.335 5.13518 13.6566C4.77948 10.5563 8.59467 6.52961 10.0949 5.24035ZM10.6603 26.1988C10.6603 24.7394 11.848 23.5517 13.3074 23.5517C14.7668 23.5517 15.9544 24.7394 15.9544 26.1988C15.9544 27.6582 14.7668 28.8459 13.3074 28.8459C11.848 28.8459 10.6603 27.6582 10.6603 26.1988ZM22.617 26.1988C22.617 24.7394 23.8046 23.5517 25.264 23.5517C26.7235 23.5517 27.9111 24.7394 27.9111 26.1988C27.9111 27.6582 26.7235 28.8459 25.264 28.8459C23.8046 28.8459 22.617 27.6582 22.617 26.1988ZM4.58331 21.4034C4.66958 21.4034 4.75525 21.4105 4.84034 21.4205V27.2866C4.75525 27.2966 4.66958 27.3025 4.58331 27.3025C3.22906 27.3025 2.42017 25.6676 2.42017 24.0865C2.42017 21.7224 3.51385 21.4034 4.58331 21.4034ZM5.31125 35.1161V33.2696C6.4528 37.6184 9.57727 41.173 13.656 42.903V45.0059C8.92496 44.1994 5.31125 40.0734 5.31125 35.1161ZM9.94951 56.8385L7.89804 55.5906L8.30042 49.7021C8.30101 49.695 8.3016 49.6885 8.3016 49.6814L8.38255 48.4955L13.7245 47.7286C14.0152 49.5668 16.8525 67.6229 17.5108 71.9409L9.83075 61.3781L10.4742 58.0214C10.5634 57.5564 10.3543 57.0849 9.94951 56.8385ZM36.3025 75.1765H21.5139L26.4865 68.3367C26.8552 67.8303 26.743 67.1207 26.236 66.752C25.7296 66.3839 25.02 66.4961 24.6513 67.0025L21.0613 71.9403C21.6072 68.3579 22.4504 62.9474 23.3892 56.972C24.8191 57.921 26.47 58.5609 28.2467 58.7996L28.7407 61.3781L27.5093 63.0715C27.1412 63.5785 27.2535 64.2881 27.7598 64.6562C28.2668 65.0249 28.9764 64.9126 29.3445 64.4062L30.8648 62.3152C31.0498 62.0611 31.1207 61.7426 31.0616 61.4342L30.5777 58.9071H36.2405C36.2807 59.287 36.3019 59.6711 36.3019 60.0581V75.1765H36.3025ZM46.8151 43.6387C44.1043 43.6387 41.8992 41.4336 41.8992 38.7227C41.8992 36.0118 44.1043 33.8067 46.8151 33.8067C49.526 33.8067 51.7311 36.0118 51.7311 38.7227C51.7311 41.4336 49.526 43.6387 46.8151 43.6387Z" fill="black"/>
</svg>

<svg width="54" height="78" fill="none" xmlns="http://www.w3.org/2000/svg"><path d="M52.866 38.723a6.05 6.05 0 1 1-12.102 0 6.05 6.05 0 0 1 12.102 0z" fill="#89CEEA"/><path d="M46.815 32.672c-.802 0-1.568.158-2.269.442a6.052 6.052 0 0 1 0 11.218 6.05 6.05 0 1 0 2.269-11.66z" fill="#78C0DE"/><path d="M37.437 60.058v16.253H1.134V60.058a12.03 12.03 0 0 1 8.992-11.653 12.019 12.019 0 0 1 3.002-.382h12.316a12.017 12.017 0 0 1 3.011.385 12.027 12.027 0 0 1 8.982 11.65z" fill="#E8E1D5"/><path d="M28.455 48.408a12.016 12.016 0 0 0-3.012-.385h-4.537a12.017 12.017 0 0 1 3.012.385 12.027 12.027 0 0 1 8.981 11.65v16.253h4.538V60.058a12.027 12.027 0 0 0-8.982-11.65z" fill="#D6CFC4"/><path d="m28.455 48.408-9.164 27.903-9.165-27.906a12.019 12.019 0 0 1 3.002-.382h12.316a12.016 12.016 0 0 1 3.011.385z" fill="#FF573D"/><path d="M26.13 48.023c.546 0 .946.514.81 1.044-.67 2.64-3.843 4.64-7.654 4.64s-6.984-2-7.656-4.64a.837.837 0 0 1 .811-1.044h2.349v-8.836h8.992v8.836h2.348z" fill="#EBA28C"/><path d="M19.286 76.311c.046-.392-3.866-25.125-4.523-29.276a.604.604 0 0 0-.683-.503l-6.282.902a.605.605 0 0 0-.518.558l-.56 8.21 2.64 1.606-.736 3.84L19.286 76.31z" fill="#C4BEB4"/><path d="M19.286 76.311c-.046-.392 3.865-25.125 4.523-29.276a.604.604 0 0 1 .683-.503l6.282.902c.283.04.498.273.518.558l.56 8.21-2.64 1.606.735 3.84-10.66 14.663z" fill="#C4BEB4"/><path d="M8.244 24.353c0 2.255-1.64 4.084-3.66 4.084-2.022 0-3.298-2.095-3.298-4.35 0-2.662 1.276-3.818 3.297-3.818 2.022 0 3.66 1.829 3.66 4.084zM30.328 24.353c0 2.255 1.639 4.084 3.66 4.084s3.298-2.095 3.298-4.35c0-2.662-1.277-3.818-3.298-3.818s-3.66 1.829-3.66 4.084z" fill="#EBA28C"/><path d="M5.975 29.608V19.76c0-6.932 5.619-12.55 12.55-12.55h1.521c6.932 0 12.55 5.618 12.55 12.55v9.848c0 7.345-5.953 13.299-13.298 13.299h-.025c-7.344 0-13.298-5.954-13.298-13.299z" fill="#FCC19C"/><path d="M20.046 7.21h-1.52c-.512 0-1.015.033-1.51.092 6.22.746 11.043 6.037 11.043 12.458v9.848c0 6.576-4.773 12.035-11.042 13.107.733.126 1.487.192 2.256.192h.025c7.345 0 13.299-5.954 13.299-13.299V19.76c0-6.932-5.62-12.55-12.55-12.55z" fill="#EBA28C"/><path d="M5.975 24.239a.15.15 0 0 0 .182.148c.605-.127 2.522-.65 2.692-2.177.201-1.815 3.64-6.958 9.08-7.462 3.962-.368 5.887-2.446 6.641-3.548.151-.22.49-.157.546.104.3 1.4 1.118 4.32 2.947 5.965 2.418 2.175 1.69 6.958 4.368 7.147a.153.153 0 0 0 .166-.152v-3.779c0-.4.325-.725.725-.725h.066c.337 0 .629-.23.706-.557.329-1.386 1.03-5.092-.024-7.985-1.322-3.63-5.026-5.143-5.026-5.143s-1.257-4.94-8.961-4.94c-7.705 0-10.727 3.244-10.727 3.244s-5.852 5.017-5.348 9.407c.339 2.95.468 4.875.516 5.82.02.386.339.688.725.688.4 0 .726.325.726.726v3.219z" fill="#633327"/><path d="M34.07 11.219c-1.322-3.63-5.026-5.144-5.026-5.144s-1.257-4.94-8.961-4.94c-.904 0-1.74.046-2.518.124 5.91.768 6.941 4.816 6.941 4.816s3.704 1.513 5.026 5.144c1.055 2.892.353 6.598.024 7.985a.704.704 0 0 1-.103.234c.881 2.238 1.017 4.84 2.978 4.978a.153.153 0 0 0 .166-.152v-3.779c0-.4.325-.725.725-.725h.066c.336 0 .629-.23.706-.557.329-1.386 1.03-5.092-.024-7.984zM13.392 14.748c-4.037.374-6.97 3.301-8.298 5.529.05.01.102.017.155.017.4 0 .726.325.726.726v3.219a.15.15 0 0 0 .182.148c.605-.127 2.522-.65 2.692-2.177.201-1.815 3.64-6.958 9.08-7.462 1.37-.127 2.496-.459 3.415-.883-2.487.354-3.99.516-7.952.883z" fill="#572D22"/><path d="M17.089 26.199a3.782 3.782 0 1 1-7.563 0 3.782 3.782 0 0 1 7.563 0zM29.046 26.199a3.782 3.782 0 1 1-7.564 0 3.782 3.782 0 0 1 7.564 0z" fill="#CEE8F2"/><path d="M54 38.723c0-3.962-3.223-7.185-7.185-7.185-3.962 0-7.185 3.223-7.185 7.185 0 3.576 2.626 6.549 6.05 7.094v1.454c0 4.564-3.282 8.374-7.61 9.2a13.214 13.214 0 0 0-5.576-7.52l-.07-1.037a1.75 1.75 0 0 0-1.488-1.604l-1.995-.285c3.932-2.057 6.622-6.173 6.622-10.909V29.24c1.703-.753 2.857-2.72 2.857-5.153 0-2.645-1.141-4.342-3.178-4.816.376-1.657 1.002-5.401-.106-8.441-1.193-3.275-4.043-5.001-5.184-5.58C29.349 3.798 27.099 0 20.082 0 12.433 0 9.05 3.082 8.58 3.551c-.576.502-6.247 5.58-5.697 10.364a99.01 99.01 0 0 1 .487 5.347c-2.061.46-3.218 2.162-3.218 4.825 0 2.45 1.17 4.427 2.891 5.168v5.861c0 4.733 2.688 8.847 6.616 10.904l-2.022.29a1.75 1.75 0 0 0-1.488 1.604l-.07 1.036A13.218 13.218 0 0 0 0 60.058v7.707a1.135 1.135 0 0 0 2.269 0v-7.707a10.95 10.95 0 0 1 3.604-8.106l-.285 4.172c-.03.423.18.827.542 1.047l1.968 1.197-.588 3.066c-.06.308.012.627.197.88l9.351 12.863H2.268v-2.59a1.135 1.135 0 0 0-2.268 0v3.724c0 .626.508 1.134 1.134 1.134h36.303c.626 0 1.134-.508 1.134-1.134V60.058c0-.457-.024-.911-.071-1.36 5.374-1.026 9.45-5.759 9.45-11.427v-1.454C51.374 45.272 54 42.3 54 38.723zM35.75 56.638h-2.853c.067-.16.1-.334.087-.514l-.285-4.172a10.963 10.963 0 0 1 3.051 4.686zm-5.077-1.047-1.662 1.011a9.326 9.326 0 0 1-5.223-2.16c.06-.392.77-4.88 1.06-6.713l5.341.767.484 7.095zm-11.4-11.55h.024c1.153 0 2.275-.136 3.35-.393v1.503h-6.722v-1.503c1.075.256 2.196.393 3.349.393zm-3.3 3.38h2.2a11.56 11.56 0 0 0 1.277 5.147c-.055.002-.11.004-.164.004a9.26 9.26 0 0 1-2.555-.356l-.758-4.796zm5.87 4.778a9.313 9.313 0 0 1-1.402-4.779H22.6c-.267 1.69-.52 3.281-.755 4.78zm-2.557 2.642c.543 0 1.077-.037 1.6-.108.152.182.311.358.474.53-.938 5.956-1.603 10.22-2.074 13.28-.487-3.165-1.183-7.622-2.173-13.904.703.133 1.429.202 2.173.202zm5.63-9.829v-2.109a14.495 14.495 0 0 0 8.378-9.77v1.983c0 4.97-3.63 9.104-8.379 9.896zM36.15 24.087c0 1.58-.809 3.215-2.163 3.215-.086 0-.172-.005-.257-.015v-5.868c.085-.01.17-.016.257-.016 1.07 0 2.163.32 2.163 2.684zM10.095 5.24c.032-.027.063-.056.091-.088.027-.029 2.769-2.883 9.897-2.883 6.65 0 7.818 3.93 7.861 4.086.082.357.33.629.667.77.033.013 3.266 1.388 4.393 4.482.893 2.448.34 5.715.054 7.037a1.863 1.863 0 0 0-1.596 1.841v1.461c-.113-.316-.23-.692-.36-1.128-.446-1.499-.953-3.199-2.281-4.393-1.617-1.454-2.354-4.232-2.596-5.36a1.435 1.435 0 0 0-2.591-.506c-.687 1.005-2.355 2.739-5.809 3.06l-.145.014a1.134 1.134 0 1 0 .241 2.256l.113-.011c3.151-.293 5.166-1.565 6.387-2.753.506 1.635 1.39 3.645 2.883 4.987.854.768 1.245 2.083 1.625 3.355.445 1.492.983 3.294 2.533 3.888v4.253c0 6.707-5.456 12.164-12.165 12.164h-.023c-6.708 0-12.165-5.456-12.165-12.164v-4.302a5.202 5.202 0 0 0 1.588-.812 4.89 4.89 0 0 0-.306 1.705 4.922 4.922 0 0 0 4.916 4.916 4.924 4.924 0 0 0 4.783-3.782h2.392a4.924 4.924 0 0 0 4.782 3.782 4.922 4.922 0 0 0 4.916-4.916 4.922 4.922 0 0 0-4.916-4.916 4.923 4.923 0 0 0-4.782 3.781H18.09a4.924 4.924 0 0 0-4.783-3.781 4.9 4.9 0 0 0-3.38 1.352c.02-.098.038-.198.05-.3.096-.87 1.537-3.337 3.947-4.95a1.135 1.135 0 0 0-1.262-1.886c-2.809 1.88-4.752 4.882-4.94 6.586-.035.305-.288.554-.613.748v-1.818a1.854 1.854 0 0 0-.589-1.35l-.038-.037-.031-.026a1.844 1.844 0 0 0-.812-.402c-.06-1.015-.196-2.865-.504-5.543-.356-3.1 3.46-7.127 4.96-8.417zM10.66 26.2a2.65 2.65 0 0 1 2.647-2.647 2.65 2.65 0 0 1 2.647 2.647 2.65 2.65 0 0 1-2.647 2.647 2.65 2.65 0 0 1-2.647-2.647zm11.957 0a2.65 2.65 0 0 1 2.647-2.647 2.65 2.65 0 0 1 2.647 2.647 2.65 2.65 0 0 1-2.647 2.647 2.65 2.65 0 0 1-2.647-2.647zM4.583 21.403c.087 0 .172.008.257.018v5.866a2.2 2.2 0 0 1-.257.015c-1.354 0-2.163-1.634-2.163-3.215 0-2.365 1.094-2.684 2.163-2.684zm.728 13.713V33.27a14.499 14.499 0 0 0 8.345 9.633v2.103c-4.731-.807-8.345-4.933-8.345-9.89zM9.95 56.84 7.898 55.59l.402-5.889.002-.02.08-1.187 5.343-.766A9977.2 9977.2 0 0 1 17.51 71.94L9.83 61.378l.643-3.357c.09-.465-.12-.936-.524-1.182zm26.353 18.338h-14.79l4.973-6.84a1.134 1.134 0 1 0-1.835-1.335l-3.59 4.938c.546-3.582 1.39-8.993 2.328-14.968 1.43.949 3.081 1.589 4.858 1.828l.494 2.578-1.232 1.694a1.135 1.135 0 0 0 1.835 1.334l1.52-2.09c.186-.255.257-.573.198-.882l-.484-2.527h5.662c.04.38.062.764.062 1.151v15.119zm10.512-31.538a4.921 4.921 0 0 1-4.916-4.916 4.921 4.921 0 0 1 4.916-4.916 4.921 4.921 0 0 1 4.916 4.916 4.921 4.921 0 0 1-4.916 4.916z" fill="#000"/></svg>
